X:1
T:The Plains of Waterloo
T:Susan's Adventures in a Man of War
B:Kidson, Traditional Tunes, 1891
S:Dumfrieshire
F:http://www.folkinfo.org/songs
M:C     %Meter
L:1/8     %
K:G
G3 A B2 A2 |A2 F2 E2 D2 |B,3 A, B,2 D2 |E2 F2 G3
w:On the six-teenth day of June, my boys, In Flan-ders where we lay,  
 G |G3 B d2 d2 |g3 d d2 d2 |e3 f g2 (fe) |d4 z2 
w:Our bu-gles sound-ed the a-larm Be-fore the break of_ day; 
G2 |G3 B d2 d2 |g3 d d2 d2 |e3 f g2 (fe) |d4 z4 |
w:We Bri-tons, Bel-gians Bruns-wick-ers and Han-o-ver-ians_ too, 
(G3 A) B2 A2 |A2 F2 E2 D2 |B,3 A, B,2 D2 |E2 F2 G4 |]
w:All_ Brus-sels left that morn-ing For the plains near Wa-ter-loo. 